!!!COM: Anonymous
!!!CDT: [?]
!!!OTL@@LAT: Alma Redemptoris Mater
!!!TXO: Latin
!!!ODT: 
!!!GTL: Hymnbook E
!!!ARL: Opactwo św. Wojciecha, Staniątki 
!!!voices:	2
**kern	**text	**kern	**text
*staff2	*staff2	*staff1	*staff1
*I"Basso	*	*I"Canto I	*
=1-	=1-	=1-	=1-
*clefF4	*	*clefG2	*
*k[]	*	*k[]	*
*met(c|)	*	*met(c|)	*
*M2/2	*	*M2/2	*
[1G	Al	[1dd	Al
=2	=2	=2	=2
2G\]	.	2dd\]	.
2G\	ma	2dd\	ma
=3	=3	=3	=3
2G\	Re-	2dd\	Re-
2G\	-dem-	2dd\	-dem-
=4	=4	=4	=4
2C/	-pto-	2ee\	-pto-
2BB/	-ris	2dd\	-ris
=5	=5	=5	=5
1C	ma-	1cc	ma-
=6	=6	=6	=6
1GG	-ter	1b	-ter
=7	=7	=7	=7
[1D	quae	[1a	quae
=8	=8	=8	=8
!!linebreak:original
2D\]	.	2a/]	.
2E\	per-	2g/	per-
=9	=9	=9	=9
2D\	-vi-	2f#/	-vi-
2BB/	-a	2g/	-a
=10	=10	=10	=10
2C/	cae-	2g/	cae-
2D\	.	2f#/	.
=11	=11	=11	=11
1GG	-li	1g	-li
=12	=12	=12	=12
[1C	Por-	[1g	Por-
=13	=13	=13	=13
2C/]	.	2g/]	.
2C/	-ta	2g/	-ta
=14	=14	=14	=14
1F	ma-	1a	ma-
=15	=15	=15	=15
!!linebreak:original
2C/	-nes	2g/	-nes
2C/	et	2g/	et
=16	=16	=16	=16
2c\	stel-	2cc\	stel-
2A\	-la	[2cc\	-la
=17	=17	=17	=17
1G	ma-	2cc\]	.
.	.	2b\	ma-
=18	=18	=18	=18
[1C	-ris	[1cc	-ris
=19	=19	=19	=19
2C/]	.	2cc\]	.
2BB/	suc-	2g/	suc-
=20	=20	=20	=20
2A\	-cu-	2a/	-cu-
2G\	-re	2b\	-re
=21	=21	=21	=21
1F	ca-	1cc	ca-
=22	=22	=22	=22
!!linebreak:original
1D	-den-	1dd	-den-
=23	=23	=23	=23
2C/	-ti	1g	-ti
[2c\	Sur-	.	.
=24	=24	=24	=24
2c\]	.	[1cc	Sur-
2C/	-ge-	.	.
=25	=25	=25	=25
[1C	-re	2cc\]	.
.	.	2cc\	-ge-
=26	=26	=26	=26
1C]	.	1cc	-re
=27	=27	=27	=27
1G	qui	1b	qui
=28	=28	=28	=28
2A\	cu-	2a/	cu-
2E\	-rat	2cc\	-rat
=29	=29	=29	=29
!!linebreak:original
[1G	po-	[1b	po-
=30	=30	=30	=30
2G\]	.	2b\]	.
2G\	-pu-	2b\	-pu-
=31	=31	=31	=31
1G	-lo	1b	-lo
=32	=32	=32	=32
[1C	tu	[1ee	tu
=33	=33	=33	=33
2C/]	.	2ee\]	.
2D\	quae	2dd\	quae
=34	=34	=34	=34
2F#\	ge-	2cc\	ge-
2G\	-nu-	2b\	-nu-
=35	=35	=35	=35
1D	-i-	1a	-i-
=36	=36	=36	=36
!!pagebreak:original
1GG	-sti	1b	-sti
=37	=37	=37	=37
2G\	Na-	2dd\	Na-
2C/	-tu-	2ee\	-tu-
=38	=38	=38	=38
2C/	-ra	2ee\	-ra
2D\	mi-	2ff\	mi-
=39	=39	=39	=39
1C	-ran-	1ee	-ran-
=40	=40	=40	=40
1C	-te	1ee	-te
=41	=41	=41	=41
[1G	tu-	[1dd	tu-
=42	=42	=42	=42
2G\]	.	2dd\]	.
2G\	-um	2dd\	-um
=43	=43	=43	=43
!!linebreak:original
2G\	san-	2dd\	san-
2A\	-ctum	2cc\	-ctum
=44	=44	=44	=44
1E	Ge-	2b\	Ge-
.	.	[2ee\	.
=45	=45	=45	=45
1F	-ni-	2ee\]	.
.	.	2dd#\	-ni-
=46	=46	=46	=46
1E	-to-	1ee	-to-
=47	=47	=47	=47
1A	-rem	1ee	-rem
=48	=48	=48	=48
[1D	Vir-	[1dd	Vir-
=49	=49	=49	=49
2D\]	.	2dd\]	.
2D\	-go	2dd\	-go
=50	=50	=50	=50
!!linebreak:original
2D\	pri-	2dd\	pri-
2D\	-us	2dd\	-us
=51	=51	=51	=51
1D	ac	1a	ac
=52	=52	=52	=52
1BB	pos-	1b	pos-
=53	=53	=53	=53
[1AA	-te-	[1cc	-te-
=54	=54	=54	=54
2AA/]	.	2cc\]	.
2AA/	-ri-	2cc\	-ri-
=55	=55	=55	=55
1GG	-us	1b	-us
=56	=56	=56	=56
[1G	Ga-	[1dd	Ga-
=57	=57	=57	=57
!!linebreak:original
2G\]	.	2dd\]	.
2E\	-bri-	2ee\	-bri-
=58	=58	=58	=58
1F	-e-	1cc	-e-
=59	=59	=59	=59
2F\	-lis	2cc\	-lis
2A\	ab	2cc\	ab
=60	=60	=60	=60
1G	o-	1dd	o-
=61	=61	=61	=61
2C/	-re	2ee\	-re
[2c\	Su-	[2ee\	Su-
=62	=62	=62	=62
2c\]	.	2ee\]	.
2B\	-mens	2dd\	-mens
=63	=63	=63	=63
2A\	il-	2cc\	il-
2G\	-lud	2b\	-lud
=64	=64	=64	=64
!!linebreak:original
1D	a-	1a	a-
=65	=65	=65	=65
1GG	-ve	1b	-ve
=66	=66	=66	=66
2A\	pec-	2ee\	pec-
2F\	-ca-	2dd\	-ca-
=67	=67	=67	=67
2G\	-to-	2dd\	-to-
2G\	-rum	2dd\	-rum
=68	=68	=68	=68
2A\	mi-	2cc#\	mi-
2B-\	-se-	[2dd\	-se-
=69	=69	=69	=69
1A	-re-	2dd\]	.
.	.	2cc#\	-re-
=70	=70	=70	=70
1D	-re	1dd	-re
=71	=71	=71	=71
!!pagebreak:original
2r	.	2r	.
[2D\	pec-	[2dd\	pec-
=72	=72	=72	=72
2D\]	.	2dd\]	.
2C#/	-ca-	2ee\	-ca-
=73	=73	=73	=73
1D	-to-	[1dd	-to-
=74	=74	=74	=74
1BB	-rum	2dd\]	.
.	.	2dd\	-rum
=75	=75	=75	=75
[1C	mi-	[1cc	mi-
=76	=76	=76	=76
2C/]	.	2cc\]	.
2G\	-se-	2b\	-se-
=77	=77	=77	=77
1D	-re-	1a	-re-
=78	=78	=78	=78
1GG	-re.	1b	-re.
==	==	==	==
*-	*-	*-	*-
!!!GTL: Hymnbook E
!!!EFL: 4/117
!!!YEM: Creative Commons CC/BY/NC/SA 4.0
!!!ENC: Marcin Konik
!!!END: 
!!!EED: Marcin Konik
!!!EEV: 
!!!ONB: Translated from MusicXML and edited by Marcin Konik
!!!CharacterEncoding: utf-8
!!!RDF**kern: l=long note in original notation
!!!RDF**kern: i=editorial accidental
!!muse2ps: z14jc180F
